assets/LUTS/C-8120-STD.3dl
# Copyright: (C) Copyright 2010-2020 by IWLTBAP SAS
# Cannot be resold, shared or otherwise redistributed
# Website: https://luts.iwltbap.com
0 64 128 192 256 320 384 448 512 576 640 704 768 832 896 960 1023
0 0 0
12 38 590
28 108 904
14 89 1144
1 56 1324
7 118 1455
10 190 1576
22 248 1678
36 306 1770
52 359 1858
66 404 1955
82 458 2059
90 506 2163
97 546 2269
111 578 2365
126 601 2448
141 617 2505
0 189 15
0 250 510
0 313 858
0 370 1157
0 428 1393
0 485 1589
0 548 1770
4 610 1949
14 678 2143
16 705 2286
37 729 2410
55 744 2526
81 747 2633
113 751 2722
176 760 2807
243 774 2871
282 780 2901
0 361 79
0 413 492
0 480 829
0 562 1141
0 623 1383
0 671 1584
0 725 1769
0 772 1956
0 828 2161
0 870 2359
2 893 2545
8 892 2707
79 895 2835
172 892 2945
267 922 3033
282 976 3076
219 965 3063
0 507 122
0 581 503
0 654 836
0 747 1153
0 810 1396
0 853 1591
0 911 1781
0 960 1974
0 1012 2183
0 1038 2378
0 1042 2559
0 1029 2720
11 1038 2852
77 1037 2957
114 1042 3055
12 1069 3040
11 1083 3038
0 652 145
0 745 521
0 831 859
0 928 1177
0 1000 1425
0 1040 1625
0 1086 1809
0 1130 2001
0 1175 2204
0 1207 2395
0 1218 2576
0 1215 2738
0 1201 2868
4 1192 2965
16 1181 3048
0 1200 3029
0 1224 3028
0 802 208
0 896 554
0 985 879
0 1080 1192
0 1165 1452
0 1215 1658
0 1261 1843
0 1303 2033
0 1338 2235
0 1363 2420
0 1385 2597
0 1393 2754
0 1366 2881
0 1340 2976
0 1334 3045
0 1355 3024
0 1376 3024
1 963 301
0 1043 586
0 1128 893
0 1223 1202
0 1308 1468
0 1372 1687
0 1413 1871
0 1458 2058
0 1499 2264
0 1522 2449
0 1537 2626
0 1547 2782
0 1530 2895
0 1496 2987
0 1480 3050
0 1492 3029
0 1510 3030
14 1124 388
0 1198 636
0 1281 923
0 1369 1219
0 1452 1486
0 1522 1709
0 1574 1907
0 1611 2087
0 1649 2295
0 1677 2482
0 1695 2657
0 1700 2813
0 1674 2930
0 1639 2999
0 1615 3055
0 1615 3039
0 1633 3041
32 1282 470
6 1355 693
0 1436 963
0 1520 1244
0 1601 1508
0 1668 1731
0 1723 1935
0 1763 2119
0 1799 2324
0 1821 2510
0 1836 2685
0 1851 2846
0 1834 2970
0 1775 3027
0 1758 3072
0 1762 3066
0 1781 3073
55 1466 554
32 1539 756
3 1622 1014
0 1703 1278
0 1777 1524
0 1844 1752
0 1897 1954
0 1938 2150
0 1978 2357
0 2003 2541
0 2014 2716
0 2022 2885
0 2017 3020
0 1963 3084
0 1919 3115
0 1912 3116
0 1933 3123
82 1671 639
62 1737 819
30 1820 1063
3 1893 1300
0 1960 1536
0 2019 1751
0 2072 1953
0 2122 2164
0 2158 2377
0 2186 2576
0 2198 2758
0 2200 2921
0 2196 3064
0 2146 3146
0 2079 3164
0 2055 3159
0 2073 3164
111 1872 703
94 1929 865
65 1996 1084
32 2058 1297
4 2120 1520
0 2175 1723
0 2228 1929
0 2282 2146
0 2332 2380
0 2364 2593
0 2384 2794
0 2387 2964
0 2374 3109
0 2330 3191
0 2246 3216
0 2203 3198
0 2219 3203
141 2053 740
125 2102 890
101 2156 1076
71 2211 1278
39 2270 1483
7 2326 1689
0 2377 1882
0 2436 2110
0 2495 2357
0 2542 2591
0 2566 2813
0 2575 3005
0 2564 3154
0 2520 3240
0 2411 3258
0 2343 3236
0 2359 3239
171 2221 761
158 2262 888
136 2308 1064
111 2350 1238
81 2403 1435
49 2459 1628
14 2511 1824
0 2573 2051
0 2636 2303
0 2695 2558
0 2741 2810
0 2762 3029
0 2747 3194
0 2712 3300
0 2582 3306
0 2494 3267
0 2511 3271
197 2355 762
187 2387 866
169 2424 1014
145 2465 1188
119 2508 1365
89 2559 1559
57 2612 1749
14 2672 1981
0 2737 2238
0 2800 2499
0 2862 2775
0 2900 3025
0 2902 3220
0 2876 3344
0 2747 3370
0 2645 3324
0 2660 3332
223 2473 741
214 2498 833
201 2525 947
179 2557 1114
154 2592 1281
127 2632 1459
96 2682 1653
55 2745 1889
10 2812 2145
0 2877 2417
0 2948 2707
0 3008 2994
0 3029 3221
0 3006 3372
0 2906 3430
0 2824 3413
0 2839 3419
257 2561 688
246 2577 759
228 2600 879
209 2629 1023
186 2659 1188
159 2696 1368
131 2738 1550
90 2796 1791
43 2860 2050
2 2924 2322
0 2993 2623
0 3063 2929
0 3109 3197
0 3090 3381
0 3020 3463
0 2950 3456
0 2957 3459
206 55 24
219 66 623
139 117 951
79 70 1232
68 103 1434
40 204 1605
48 308 1773
65 400 1944
88 491 2130
96 536 2242
106 568 2331
121 592 2417
142 615 2507
177 628 2599
217 642 2676
259 653 2742
290 666 2777
140 239 13
28 284 489
6 337 846
0 373 1149
0 416 1391
0 485 1591
3 556 1776
12 614 1960
21 678 2160
27 716 2349
58 745 2532
100 749 2689
189 763 2822
333 790 2935
420 820 3006
468 872 3064
471 893 3082
75 405 73
3 448 470
0 504 805
0 564 1120
0 630 1374
0 684 1584
0 745 1775
0 793 1965
0 850 2170
0 891 2366
2 909 2551
9 902 2713
84 902 2844
186 896 2956
290 943 3060
176 962 3057
177 961 3057
5 546 101
0 605 464
0 679 797
0 755 1120
0 829 1383
0 885 1595
0 942 1789
0 994 1987
0 1047 2198
0 1073 2390
0 1078 2570
0 1070 2731
6 1074 2862
56 1069 2963
95 1067 3056
12 1078 3041
12 1076 3042
0 680 101
0 758 461
0 846 804
0 934 1137
0 1010 1406
0 1068 1627
0 1117 1820
0 1163 2013
0 1207 2220
0 1239 2409
0 1261 2590
0 1262 2753
0 1242 2882
1 1229 2976
6 1220 3053
0 1227 3035
0 1225 3036
0 837 173
0 918 497
0 1008 826
0 1097 1148
0 1179 1429
0 1244 1654
0 1295 1855
0 1338 2045
0 1374 2251
0 1397 2437
0 1416 2613
0 1428 2770
0 1402 2895
0 1377 2990
0 1370 3056
0 1384 3034
0 1395 3036
10 995 266
0 1073 543
0 1157 847
0 1242 1160
0 1327 1445
0 1400 1679
0 1455 1884
0 1497 2072
0 1541 2283
0 1561 2469
0 1575 2645
0 1583 2800
0 1561 2915
0 1533 3005
0 1514 3065
0 1513 3043
0 1531 3045
27 1160 354
3 1235 599
0 1315 883
0 1401 1184
0 1488 1465
0 1560 1704
0 1621 1917
0 1658 2105
0 1692 2314
0 1718 2503
0 1733 2677
0 1735 2832
0 1706 2950
0 1667 3018
0 1642 3070
0 1637 3055
0 1658 3057
47 1329 437
23 1403 658
1 1477 924
0 1560 1207
0 1642 1479
0 1720 1725
0 1780 1938
0 1825 2138
0 1858 2345
0 1878 2528
0 1890 2705
0 1900 2870
0 1885 2996
0 1826 3055
0 1792 3092
0 1793 3085
0 1814 3092
72 1534 532
51 1599 727
16 1679 983
0 1755 1240
0 1827 1495
0 1896 1729
0 1956 1946
0 2006 2158
0 2045 2372
0 2071 2564
0 2076 2741
0 2079 2906
0 2073 3044
0 2023 3116
0 1958 3136
0 1944 3133
0 1964 3138
102 1742 603
82 1800 782
51 1875 1021
14 1941 1257
0 2007 1498
0 2068 1717
0 2126 1934
0 2183 2155
0 2226 2384
0 2256 2593
0 2263 2780
0 2264 2946
0 2254 3087
0 2206 3172
0 2119 3186
0 2089 3174
0 2106 3178
131 1935 660
113 1987 823
86 2045 1032
52 2105 1254
16 2166 1475
1 2223 1691
0 2278 1897
0 2338 2127
0 2396 2376
0 2435 2601
0 2456 2813
0 2457 2989
0 2441 3132
0 2392 3215
0 2291 3236
0 2239 3213
0 2258 3217
160 2113 695
146 2158 836
123 2209 1023
94 2261 1223
61 2317 1433
25 2373 1642
2 2426 1843
0 2488 2080
0 2552 2338
0 2603 2585
0 2637 2821
0 2646 3022
0 2635 3178
0 2588 3266
0 2456 3276
0 2383 3248
0 2400 3251
189 2274 711
178 2313 829
157 2353 1000
132 2398 1182
103 2445 1376
71 2499 1576
35 2552 1778
3 2613 2013
0 2679 2276
0 2742 2539
0 2796 2806
0 2819 3036
0 2813 3211
0 2767 3322
0 2627 3329
0 2532 3282
0 2548 3287
215 2405 714
205 2436 811
190 2467 945
165 2505 1127
140 2544 1299
109 2591 1497
78 2642 1689
34 2707 1934
1 2772 2197
0 2836 2466
0 2904 2755
0 2953 3022
0 2959 3229
0 2915 3357
0 2793 3392
0 2688 3348
0 2706 3357
242 2508 668
235 2533 756
220 2561 880
200 2592 1038
173 2621 1214
146 2659 1391
115 2704 1588
75 2768 1830
25 2835 2097
0 2900 2372
0 2972 2675
0 3041 2976
0 3067 3219
0 3033 3381
0 2941 3443
0 2863 3430
0 2875 3435
270 2587 630
267 2610 699
255 2635 819
228 2661 969
206 2689 1124
177 2721 1306
148 2761 1493
107 2817 1738
60 2877 1997
10 2939 2276
0 3007 2584
0 3080 2897
0 3129 3182
0 3106 3387
0 3041 3472
0 2970 3467
0 2977 3470
464 169 55
543 93 550
455 142 973
353 87 1260
197 108 1448
120 207 1614
108 308 1782
110 397 1956
114 493 2151
116 568 2339
147 617 2518
217 642 2676
318 676 2801
387 697 2866
452 718 2923
504 740 2970
523 748 2990
387 302 30
423 327 407
283 352 845
87 357 1155
8 403 1396
11 462 1596
23 539 1782
33 598 1966
38 664 2165
43 706 2356
73 737 2537
111 743 2697
208 764 2835
360 796 2955
473 867 3067
347 877 3071
344 876 3071
325 443 80
220 475 457
105 506 788
8 542 1107
0 613 1371
0 666 1585
0 728 1777
0 778 1969
0 839 2176
1 880 2373
2 899 2557
15 894 2718
103 894 2849
209 892 2961
313 942 3064
194 958 3061
197 957 3062
190 588 90
113 625 453
23 673 770
0 737 1094
0 817 1374
0 878 1593
0 934 1792
0 986 1992
0 1036 2203
0 1062 2395
0 1069 2574
0 1063 2737
8 1067 2868
70 1061 2969
112 1060 3061
16 1070 3048
19 1068 3049
92 720 76
33 771 435
0 832 758
0 931 1106
0 1018 1400
0 1080 1626
0 1127 1824
0 1174 2018
0 1215 2226
0 1248 2416
0 1269 2597
0 1267 2760
0 1245 2889
1 1229 2982
15 1218 3058
0 1215 3041
0 1212 3043
36 862 131
7 919 449
0 988 763
0 1098 1112
0 1201 1422
0 1268 1654
0 1322 1861
0 1365 2051
0 1402 2260
0 1423 2446
0 1440 2623
0 1449 2779
0 1425 2904
0 1396 2997
0 1389 3063
0 1386 3042
0 1382 3044
30 1015 217
1 1069 486
0 1140 783
0 1257 1131
0 1370 1440
0 1441 1681
0 1501 1893
0 1543 2083
0 1584 2296
0 1607 2482
0 1615 2658
0 1621 2813
0 1599 2928
0 1567 3012
0 1538 3075
0 1529 3055
0 1527 3058
48 1173 296
11 1229 534
0 1308 821
0 1423 1152
0 1528 1453
0 1603 1702
0 1666 1920
0 1708 2117
0 1740 2327
0 1762 2514
0 1779 2691
0 1782 2847
0 1751 2967
0 1709 3031
0 1679 3080
0 1664 3072
0 1670 3075
61 1335 368
34 1394 591
4 1481 865
0 1598 1180
0 1692 1465
0 1773 1718
0 1836 1938
0 1887 2148
0 1921 2358
0 1942 2544
0 1949 2722
0 1956 2887
0 1945 3016
0 1887 3079
0 1831 3113
0 1816 3106
0 1837 3112
85 1536 454
64 1597 654
32 1693 920
3 1802 1211
0 1879 1473
0 1946 1706
0 2010 1933
0 2065 2155
0 2108 2380
0 2136 2582
0 2143 2761
0 2139 2925
0 2129 3065
0 2079 3141
0 1994 3163
0 1972 3151
0 1992 3156
116 1749 524
98 1813 709
70 1899 957
33 1989 1221
3 2055 1460
0 2116 1686
0 2176 1909
0 2236 2141
0 2291 2386
0 2325 2604
0 2334 2800
0 2332 2969
0 2313 3108
0 2264 3193
0 2162 3215
0 2120 3191
0 2141 3196
147 1949 574
133 2010 740
107 2083 967
75 2155 1201
39 2215 1425
7 2273 1649
0 2329 1857
0 2393 2100
0 2457 2362
0 2502 2603
0 2531 2826
0 2529 3010
0 2510 3155
0 2452 3240
0 2339 3261
0 2275 3232
0 2291 3236
178 2140 619
169 2198 753
145 2258 959
118 2312 1157
85 2365 1374
50 2421 1584
15 2476 1796
0 2540 2040
0 2606 2309
0 2665 2572
0 2708 2825
0 2724 3039
0 2706 3200
0 2647 3292
0 2507 3300
0 2423 3263
0 2440 3265
210 2311 643
200 2359 769
182 2402 923
155 2442 1110
128 2487 1297
95 2537 1509
60 2590 1713
14 2654 1967
0 2721 2239
0 2785 2511
0 2846 2793
0 2879 3040
0 2877 3229
0 2813 3341
0 2679 3356
0 2569 3304
0 2587 3310
240 2449 647
230 2489 761
215 2520 881
192 2550 1042
164 2584 1221
136 2624 1409
102 2673 1614
58 2737 1867
10 2805 2142
0 2871 2426
0 2941 2727
0 3001 3012
0 3017 3237
0 2954 3371
0 2848 3419
0 2736 3376
0 2757 3386
277 2553 624
272 2582 703
250 2605 821
225 2633 971
201 2661 1134
168 2692 1321
139 2731 1507
96 2791 1762
46 2859 2036
2 2924 2322
0 2995 2638
0 3066 2950
0 3101 3215
0 3062 3392
0 2979 3460
0 2898 3448
0 2909 3452
311 2630 603
322 2657 668
306 2681 771
270 2703 917
232 2727 1072
202 2754 1238
167 2785 1424
128 2836 1667
81 2896 1931
24 2956 2217
0 3023 2534
0 3097 2858
0 3153 3167
0 3128 3391
0 3067 3484
0 2994 3483
0 3000 3485
668 287 151
731 193 414
768 163 955
680 108 1298
530 131 1494
300 210 1636
176 305 1792
164 390 1964
154 486 2158
150 561 2345
173 611 2524
237 640 2689
352 684 2831
487 730 2954
583 813 3067
468 836 3079
466 837 3080
652 379 54
722 423 396
702 358 797
482 380 1178
304 386 1422
115 437 1610
54 527 1789
59 583 1973
57 652 2172
64 696 2363
92 727 2543
131 736 2703
234 761 2841
386 794 2960
495 866 3072
360 874 3074
