assets/LUTS/C-8120-STD.3dl
# Copyright: (C) Copyright 2010-2020 by IWLTBAP SAS
# Cannot be resold, shared or otherwise redistributed
# Website: https://luts.iwltbap.com
0 256 512 768 1023
0 0 0
1 56 1324
36 306 1770
90 506 2163
141 617 2505
0 652 145
0 1000 1425
0 1175 2204
0 1201 2868
0 1224 3028
32 1282 470
0 1601 1508
0 1799 2324
0 1834 2970
0 1781 3073
141 2053 740
39 2270 1483
0 2495 2357
0 2564 3154
0 2359 3239
257 2561 688
186 2659 1188
43 2860 2050
0 3109 3197
0 2957 3459
877 379 239
864 147 1535
196 477 2165
378 682 2835
448 831 3077
731 846 123
257 958 1331
0 1190 2232
0 1223 2902
2 1177 3062
425 1440 240
1 1597 1289
0 1954 2366
0 1969 3033
0 1808 3130
338 2203 403
139 2384 1204
0 2683 2257
0 2815 3224
0 2521 3323
566 2694 489
430 2797 951
108 2931 1853
0 3194 3156
0 3059 3526
1689 728 513
1894 381 1259
1489 473 2337
903 658 2919
582 828 3092
1881 1062 75
1774 1201 1155
1277 1162 2361
566 1124 3036
316 1114 3142
1804 1675 359
1513 1770 1286
882 1882 2308
39 1875 3157
0 1692 3231
1838 2533 483
1386 2600 1150
325 2729 2130
0 2892 3286
0 2639 3485
1768 2953 543
1646 3029 901
924 3082 1584
5 3298 3095
0 3252 3656
2480 1124 851
2407 778 943
2595 553 2235
2027 711 3072
1653 844 3218
2961 1312 248
2977 1510 1208
2791 1214 2040
2094 1204 3197
1671 1122 3312
3039 1782 152
3319 2043 996
2791 2165 2084
2148 2008 3340
1642 1706 3493
3178 2715 612
3023 2844 1222
2603 2987 2237
1982 3126 3415
1787 2863 3789
3127 3255 780
3063 3341 1150
2806 3422 1799
2401 3624 3147
1127 3612 3911
3243 1448 1081
3056 1252 1096
3152 1011 1796
3197 765 3100
2789 874 3334
3632 1594 636
3424 1935 1604
3253 1512 1722
3343 1286 3127
2900 1212 3446
3872 2134 390
3901 2354 1225
3609 2715 2499
3544 2197 3186
3066 1860 3631
4019 2793 523
4049 2973 1190
3995 3221 2254
3717 3494 3472
3418 3020 3895
4043 3277 723
4063 3395 1068
4035 3583 1957
3926 3851 3230
4041 4043 4027
