assets/LUTS/C-8120-STD.3dl
# Copyright: (C) Copyright 2010-2020 by IWLTBAP SAS
# Cannot be resold, shared or otherwise redistributed
# Website: https://luts.iwltbap.com
0 128 256 384 512 640 768 896 1023
0 0 0
28 108 904
1 56 1324
10 190 1576
36 306 1770
66 404 1955
90 506 2163
111 578 2365
141 617 2505
0 361 79
0 480 829
0 623 1383
0 725 1769
0 828 2161
2 893 2545
79 895 2835
267 922 3033
219 965 3063
0 652 145
0 831 859
0 1000 1425
0 1086 1809
0 1175 2204
0 1218 2576
0 1201 2868
16 1181 3048
0 1224 3028
1 963 301
0 1128 893
0 1308 1468
0 1413 1871
0 1499 2264
0 1537 2626
0 1530 2895
0 1480 3050
0 1510 3030
32 1282 470
0 1436 963
0 1601 1508
0 1723 1935
0 1799 2324
0 1836 2685
0 1834 2970
0 1758 3072
0 1781 3073
82 1671 639
30 1820 1063
0 1960 1536
0 2072 1953
0 2158 2377
0 2198 2758
0 2196 3064
0 2079 3164
0 2073 3164
141 2053 740
101 2156 1076
39 2270 1483
0 2377 1882
0 2495 2357
0 2566 2813
0 2564 3154
0 2411 3258
0 2359 3239
197 2355 762
169 2424 1014
119 2508 1365
57 2612 1749
0 2737 2238
0 2862 2775
0 2902 3220
0 2747 3370
0 2660 3332
257 2561 688
228 2600 879
186 2659 1188
131 2738 1550
43 2860 2050
0 2993 2623
0 3109 3197
0 3020 3463
0 2957 3459
464 169 55
455 142 973
197 108 1448
108 308 1782
114 493 2151
147 617 2518
318 676 2801
452 718 2923
523 748 2990
325 443 80
105 506 788
0 613 1371
0 728 1777
0 839 2176
2 899 2557
103 894 2849
313 942 3064
197 957 3062
92 720 76
0 832 758
0 1018 1400
0 1127 1824
0 1215 2226
0 1269 2597
0 1245 2889
15 1218 3058
0 1212 3043
30 1015 217
0 1140 783
0 1370 1440
0 1501 1893
0 1584 2296
0 1615 2658
0 1599 2928
0 1538 3075
0 1527 3058
61 1335 368
4 1481 865
0 1692 1465
0 1836 1938
0 1921 2358
0 1949 2722
0 1945 3016
0 1831 3113
0 1837 3112
116 1749 524
70 1899 957
3 2055 1460
0 2176 1909
0 2291 2386
0 2334 2800
0 2313 3108
0 2162 3215
0 2141 3196
178 2140 619
145 2258 959
85 2365 1374
15 2476 1796
0 2606 2309
0 2708 2825
0 2706 3200
0 2507 3300
0 2440 3265
240 2449 647
215 2520 881
164 2584 1221
102 2673 1614
10 2805 2142
0 2941 2727
0 3017 3237
0 2848 3419
0 2757 3386
311 2630 603
306 2681 771
232 2727 1072
167 2785 1424
81 2896 1931
0 3023 2534
0 3153 3167
0 3067 3484
0 3000 3485
877 379 239
1040 220 844
864 147 1535
489 293 1835
196 477 2165
205 603 2530
378 682 2835
596 818 3073
448 831 3077
856 562 57
914 615 655
562 597 1395
190 672 1812
4 815 2190
11 876 2570
147 879 2862
373 940 3074
266 948 3076
731 846 123
582 888 728
257 958 1331
7 1063 1820
0 1190 2232
0 1244 2611
0 1223 2902
66 1194 3076
2 1177 3062
608 1145 169
423 1183 717
42 1284 1313
0 1445 1855
0 1572 2302
0 1598 2668
0 1582 2940
0 1511 3099
0 1484 3082
425 1440 240
175 1487 726
1 1597 1289
0 1828 1885
0 1954 2366
0 1978 2738
0 1969 3033
0 1846 3148
0 1808 3130
287 1820 318
166 1890 771
34 2002 1277
0 2215 1831
0 2362 2378
0 2415 2821
0 2386 3132
0 2247 3277
0 2177 3248
338 2203 403
261 2283 785
139 2384 1204
51 2541 1701
0 2683 2257
0 2803 2812
0 2815 3224
0 2630 3386
0 2521 3323
423 2508 489
369 2577 743
242 2642 1066
138 2718 1494
41 2849 2047
0 2987 2661
0 3084 3237
0 2958 3482
0 2865 3458
566 2694 489
563 2746 683
430 2797 951
204 2850 1395
108 2931 1853
4 3053 2429
0 3194 3156
0 3135 3523
0 3059 3526
1320 518 309
1407 312 557
1551 149 1518
1196 328 1921
858 440 2268
377 570 2561
438 676 2845
642 817 3078
504 830 3083
1408 688 4
1465 775 645
1485 609 1315
1035 706 1888
667 748 2290
152 837 2608
209 860 2880
472 937 3091
382 939 3099
1335 941 94
1449 1033 539
1271 1061 1197
794 1075 1846
364 1107 2297
5 1185 2646
1 1199 2921
170 1160 3103
70 1139 3096
1279 1268 254
1157 1304 728
916 1354 1313
562 1408 1803
141 1470 2313
0 1558 2690
0 1559 2958
0 1466 3137
4 1424 3121
1227 1595 295
1047 1625 730
772 1665 1279
378 1753 1779
14 1883 2327
0 1969 2759
0 1956 3048
0 1812 3190
0 1752 3167
1128 1985 329
933 2023 718
607 2055 1218
184 2158 1704
0 2339 2306
0 2425 2834
0 2387 3149
0 2247 3324
0 2150 3279
1093 2372 365
896 2417 696
592 2465 1146
156 2543 1569
1 2697 2174
0 2821 2811
0 2842 3244
0 2750 3464
0 2615 3420
1083 2666 414
954 2710 659
737 2766 1037
297 2792 1355
81 2880 1914
0 3002 2638
0 3142 3239
0 3087 3559
0 2993 3540
1117 2812 439
1063 2849 597
996 2904 896
691 2933 1195
174 2963 1686
26 3090 2341
0 3236 3132
0 3228 3577
0 3148 3580
1689 728 513
1692 488 484
1894 381 1259
1829 338 1920
1489 473 2337
1187 572 2686
903 658 2919
712 818 3086
582 828 3092
1907 844 132
1968 935 714
1979 686 927
1766 716 1882
1405 797 2353
1116 825 2729
800 850 2973
622 932 3115
552 930 3128
1881 1062 75
2191 1145 413
1774 1201 1155
1705 1069 1768
1277 1162 2361
940 1154 2772
566 1124 3036
342 1123 3143
316 1114 3142
1843 1315 178
1854 1398 603
1776 1484 1163
1619 1501 1693
1119 1508 2345
725 1503 2815
252 1446 3099
39 1416 3185
86 1351 3169
1804 1675 359
1719 1734 760
1513 1770 1286
1289 1830 1795
882 1882 2308
283 1917 2840
39 1875 3157
0 1771 3252
0 1692 3231
1822 2124 447
1673 2159 735
1410 2181 1224
1089 2234 1703
492 2319 2254
73 2413 2841
0 2378 3232
0 2235 3386
0 2106 3337
1838 2533 483
1677 2577 702
1386 2600 1150
974 2640 1586
325 2729 2130
23 2860 2766
0 2892 3286
0 2795 3525
0 2639 3485
1852 2832 522
1748 2879 691
1555 2917 1076
1221 2944 1452
473 2972 1873
26 3072 2536
0 3202 3244
0 3223 3647
0 3127 3647
1768 2953 543
1709 2982 648
1646 3029 901
1538 3076 1212
924 3082 1584
98 3116 2177
5 3298 3095
0 3337 3646
0 3252 3656
2059 925 681
2007 743 637
2114 594 1040
2237 466 1776
2066 477 2339
1742 590 2742
1491 691 3010
1406 835 3170
934 833 3131
2331 986 354
2468 1119 847
2367 860 815
2399 788 1616
2019 821 2360
1714 861 2785
1498 885 3065
1401 952 3208
966 932 3175
2401 1190 203
2897 1225 360
2371 1379 1200
2320 1114 1399
1990 1176 2352
1657 1204 2832
1416 1168 3135
1269 1151 3268
838 1098 3226
2407 1409 120
2718 1520 422
2708 1612 1036
2208 1629 1602
2052 1508 2241
1602 1567 2871
1306 1499 3206
1079 1400 3336
598 1287 3268
2412 1698 248
2384 1760 620
2319 1870 1182
2253 1982 1660
2076 1982 2172
1485 2002 2890
1107 1929 3280
755 1758 3427
179 1608 3336
2436 2184 487
2367 2241 724
2206 2303 1262
1984 2353 1721
1697 2424 2291
1307 2492 2866
848 2446 3338
710 2274 3549
82 2068 3448
2564 2682 616
2482 2733 779
2264 2763 1215
2003 2797 1637
1648 2862 2194
1102 2941 2792
590 2985 3353
759 2903 3682
138 2682 3614
2600 2987 666
2543 3040 809
2384 3085 1185
2146 3115 1545
1783 3150 2019
1111 3207 2588
566 3301 3276
912 3368 3762
68 3262 3782
2443 3109 675
2427 3144 778
2363 3182 1005
2253 3221 1286
2017 3258 1648
1275 3264 2136
1024 3437 3092
269 3488 3743
0 3399 3771
2480 1124 851
2372 955 790
2407 778 943
2541 705 1556
2595 553 2235
2373 592 2762
2027 711 3072
1889 867 3237
1653 844 3218
2738 1175 599
2900 1297 974
2748 1120 948
2787 930 1283
2770 873 2176
2403 884 2807
2093 912 3126
1917 997 3279
1688 947 3257
2961 1312 248
3250 1373 634
2977 1510 1208
2891 1238 1203
2791 1214 2040
2399 1236 2857
2094 1204 3197
1886 1213 3341
1671 1122 3312
2997 1525 170
3437 1579 284
3429 1639 816
2907 1821 1621
2774 1529 1798
2468 1591 2869
2124 1547 3265
1886 1481 3418
1673 1345 3383
3039 1782 152
3285 1925 407
3319 2043 996
3308 2141 1498
2791 2165 2084
2605 1974 2787
2148 2008 3340
1898 1885 3526
1642 1706 3493
3100 2204 360
3077 2242 548
3001 2338 1128
2947 2465 1614
2883 2601 2142
2678 2605 2733
2097 2561 3403
1945 2403 3641
1648 2189 3630
3178 2715 612
3149 2774 752
3023 2844 1222
2867 2918 1695
2603 2987 2237
2306 3072 2852
1982 3126 3415
2096 3048 3761
1787 2863 3789
3212 3052 746
3216 3130 883
3146 3219 1271
2977 3270 1672
2682 3322 2145
2317 3386 2731
1968 3455 3350
2398 3547 3828
1990 3454 3908
3127 3255 780
3117 3297 875
3063 3341 1150
2969 3382 1471
2806 3422 1799
2452 3459 2230
2401 3624 3147
2192 3688 3805
1127 3612 3911
2911 1301 976
2788 1156 939
2748 987 953
2822 901 1365
2930 810 2018
2923 643 2705
2691 723 3111
2461 932 3311
2213 839 3270
3101 1363 820
3232 1447 1082
3079 1290 1049
3050 1086 1138
3139 1032 1821
3064 917 2699
2783 928 3158
2503 1063 3354
2270 951 3311
3406 1421 339
3471 1529 865
3322 1648 1284
3208 1476 1294
3181 1265 1641
3165 1248 2657
2833 1228 3222
2498 1279 3417
2272 1138 3370
3486 1627 235
3733 1741 486
3657 1787 989
3424 1931 1598
3237 1599 1572
3248 1594 2544
2892 1562 3284
2520 1545 3487
2319 1386 3451
3564 1925 188
3826 2095 389
3856 2163 782
3820 2207 1308
3468 2362 2109
3275 1971 2309
3026 1985 3332
2600 1939 3581
2435 1781 3570
3636 2255 270
3780 2389 483
3823 2503 928
3842 2614 1393
3833 2720 1926
3411 2788 2667
3210 2510 3320
2780 2496 3697
2653 2333 3718
3715 2725 499
3732 2765 594
3689 2819 1003
3615 2921 1522
3563 3076 2101
3506 3229 2712
3299 3235 3312
2964 3152 3807
2834 2980 3859
3759 3084 683
3781 3146 777
3742 3217 1123
3643 3301 1615
3483 3417 2209
3247 3526 2821
3010 3607 3425
3190 3679 3863
3107 3576 3967
3694 3276 790
3705 3325 862
3683 3396 1168
3621 3471 1579
3539 3577 2030
3312 3631 2430
3380 3782 3244
3330 3872 3850
2913 3859 3992
3243 1448 1081
3138 1329 1056
3056 1252 1096
3064 1054 1247
3152 1011 1796
3238 906 2532
3197 765 3100
3032 960 3360
2789 874 3334
3389 1528 982
3323 1653 1289
3230 1514 1275
3181 1322 1296
3222 1243 1731
3315 1155 2476
3262 975 3105
3066 1086 3394
2855 1000 3378
3632 1594 636
3540 1725 1119
3424 1935 1604
3274 1721 1553
3253 1512 1722
3361 1466 2441
3343 1286 3127
3094 1297 3453
2900 1212 3446
3775 1836 445
3795 1942 820
3703 2085 1434
3530 2313 2026
3334 1933 1886
3395 1824 2404
3434 1658 3149
3134 1554 3520
2962 1475 3525
3872 2134 390
3899 2239 743
3901 2354 1225
3838 2513 1848
3609 2715 2499
3421 2291 2399
3544 2197 3186
3200 1951 3612
3066 1860 3631
3957 2456 406
3991 2557 704
3994 2666 1173
3981 2795 1676
3919 2990 2361
3675 3128 3003
3585 2771 3142
3345 2520 3706
3219 2377 3758
4019 2793 523
4043 2880 765
4049 2973 1190
4035 3076 1659
3995 3221 2254
3900 3400 2940
3717 3494 3472
3533 3221 3793
3418 3020 3895
4048 3110 658
4066 3174 826
4071 3246 1164
4067 3315 1570
4032 3416 2101
3933 3574 2769
3761 3737 3445
3733 3791 3884
3696 3648 4001
4043 3277 723
4055 3332 805
4063 3395 1068
4061 3476 1446
4035 3583 1957
3929 3717 2581
3926 3851 3230
3967 3993 3821
4041 4043 4027
